symbols/web/local_bar/materialsymbolsrounded/local_bar_gradN25_40px.svg

<svg xmlns="http://www.w3.org/2000/svg" height="40" width="40"><path d="M11.542 34.792q-.584 0-.959-.375t-.375-.917q0-.583.375-.958t.959-.375h7.166v-9.625l-12.833-14q-.208-.25-.396-.709-.187-.458-.187-.875 0-.666.52-1.187.521-.521 1.23-.521h25.916q.709 0 1.23.5.52.5.52 1.25 0 .375-.187.833-.188.459-.396.709l-12.792 14v9.625h7.125q.584 0 .959.375t.375.958q0 .542-.375.917t-.959.375Zm.5-23.459h15.916L31.25 8H8.75ZM20 20.042l5.583-6.084H14.417Zm0 0Z"/></svg>

<svg xmlns="http://www.w3.org/2000/svg" height="40" width="40"><path d="M11.542 34.792Q10.958 34.792 10.583 34.417Q10.208 34.042 10.208 33.5Q10.208 32.917 10.583 32.542Q10.958 32.167 11.542 32.167H18.708V22.542L5.875 8.542Q5.667 8.292 5.479 7.833Q5.292 7.375 5.292 6.958Q5.292 6.292 5.812 5.771Q6.333 5.25 7.042 5.25H32.958Q33.667 5.25 34.188 5.75Q34.708 6.25 34.708 7Q34.708 7.375 34.521 7.833Q34.333 8.292 34.125 8.542L21.333 22.542V32.167H28.458Q29.042 32.167 29.417 32.542Q29.792 32.917 29.792 33.5Q29.792 34.042 29.417 34.417Q29.042 34.792 28.458 34.792ZM12.042 11.333H27.958L31.25 8H8.75ZM20 20.042 25.583 13.958H14.417ZM20 20.042Z"/></svg>
